svg/color/gyen.svg

<svg width="64" height="65" viewBox="0 0 64 65" fill="none" xmlns="http://www.w3.org/2000/svg">
<rect y="0.303711" width="64" height="64" rx="32" fill="#005BAC"/>
<rect x="0.5" y="0.803711" width="63" height="63" rx="31.5" stroke="#070B14" stroke-opacity="0.15"/>
<path d="M32.0077 47.1549C45.248 47.1549 56 40.6832 56 32.7216C56.0019 32.1727 55.9453 31.6252 55.831 31.0883C55.831 30.9859 55.744 30.9552 55.6518 30.9552H32.0077C31.7018 30.9407 31.3961 30.9883 31.1091 31.0954C30.8222 31.2024 30.56 31.3665 30.3383 31.5779C30.1167 31.7892 29.9403 32.0433 29.8197 32.3249C29.6992 32.6064 29.637 32.9094 29.637 33.2157C29.637 33.5219 29.6992 33.825 29.8197 34.1065C29.9403 34.388 30.1167 34.6422 30.3383 34.8535C30.56 35.0648 30.8222 35.229 31.1091 35.336C31.3961 35.4431 31.7018 35.4907 32.0077 35.4762H46.0928C44.398 39.8845 38.7404 43.1562 32.023 43.1562C23.959 43.1562 17.431 38.4867 17.431 32.7523C17.431 27.0179 23.959 22.3485 32.023 22.3485C36.4057 22.3485 40.3532 23.7258 43.0259 25.9325C43.0632 25.9383 43.1012 25.9383 43.1385 25.9325H52.8C52.8434 25.9325 52.8851 25.9152 52.9158 25.8845C52.9465 25.8538 52.9638 25.8121 52.9638 25.7687C52.9638 25.7226 52.9638 25.656 52.928 25.656C48.7808 21.2784 40.9676 18.3037 32.0077 18.3037C18.752 18.3037 8 24.76 8 32.7216C8 40.6832 18.7673 47.1549 32.0077 47.1549Z" fill="white"/>
</svg>

<svg xmlns="http://www.w3.org/2000/svg" width="64" height="65" fill="none" viewBox="0 0 64 65"><rect width="64" height="64" y=".304" fill="#005BAC" rx="32"/><rect width="63" height="63" x=".5" y=".804" stroke="#070B14" stroke-opacity=".15" rx="31.5"/><path fill="#fff" d="M32.008 47.155C45.248 47.155 56 40.683 56 32.722a7.7 7.7 0 0 0-.169-1.634c0-.102-.087-.133-.18-.133H32.009a2.264 2.264 0 1 0 0 4.521h14.085c-1.695 4.409-7.353 7.68-14.07 7.68-8.064 0-14.592-4.67-14.592-10.404s6.528-10.404 14.592-10.404c4.383 0 8.33 1.378 11.003 3.585a.4.4 0 0 0 .112 0H52.8a.164.164 0 0 0 .164-.164c0-.046 0-.113-.036-.113-4.147-4.378-11.96-7.352-20.92-7.352C18.752 18.304 8 24.76 8 32.722s10.767 14.433 24.008 14.433"/></svg>
